X: 184
T: Alamuhan
%%abc-version 2.0
%%abcx-abcm2ps-target-version 5.9.1 (29 Sep 2008)
%%abc-creator hum2abc beta
%%abcx-conversion-date 2013/10/02 07:44:28
%%abc-edited-by Helmut Schaffrath
%%humdrum-veritas 589227429
%%humdrum-veritas-data 391912716
%%continueall 1
%%barnumbers 0
L: 1/16
M: 4/4
K: C
G, C C C B, C D4<E4c2 | 
B A G F E C D2C4z4 | 
G, C C C B, C D4<E4c2 | 
B A G F E C D2C4z4 | 
z2 G G2< G2 A c c c2z4 | 
z2 c c c2 A2 A A G2z4 | 
z2 c c c2 c2 A B A2G4 | 
z2 G G E2 E2 D D E2z4 | 
G, C C C G G F4<E4c2 | 
B A G F E C D2C4z4 | 
G G G G G G F4<E4c2 | 
B A e d c A B2c4z4 |]  



